X: 7651
T: Coldside, The
R: jig
M: 6/8
K: Aminor
|:a3 e2d|cBc Ace|g3 d2c|Bge dBG|
e3 c'3|ba^g a2f|efe dcB|1 cAA Ace:|2 cAA A2B||
|:cdc ABc|edc edc|BcB GAB|dcB dcB|
ceg Bdg|Ace a2f|efe dcB|1 cAA A2B:|2 cAA Ace||

